;FLAVOR:Marlin
;TIME:3217
;Filament used: 2.95582m
;Layer height: 0.15
;Generated with Cura_SteamEngine 3.6.0
M140 S60
M105
M190 S60
M104 S200
M105
M109 S200
M82 ;absolute extrusion mode
G28 ;Home
G1 Z15.0 F6000 ;Move the platform down 15mm
;Prime the extruder
G92 E0
G1 F200 E3
G92 E0
G92 E0
G1 F2400 E-5
;LAYER_COUNT:154
;LAYER:0
M107
M204 S5000
M205 X30 Y30
G0 F3600 X98.597 Y67.546 Z0.2
M204 S500
M205 X20 Y20
;TYPE:SKIRT
G1 F2400 E0
G1 F1800 X99.08 Y66.922 E0.02625
G1 X99.623 Y66.349 E0.0525
G1 X100.222 Y65.834 E0.07878
G1 X100.87 Y65.383 E0.10503
G1 X101.561 Y64.999 E0.13133
G1 X102.286 Y64.687 E0.15758
G1 X103.039 Y64.45 E0.18383
G1 X103.813 Y64.291 E0.21012
G1 X104.598 Y64.21 E0.23636
G1 X105 Y64.2 E0.24974
G1 X115 Y64.2 E0.58234
G1 X115.789 Y64.24 E0.60862
G1 X116.569 Y64.359 E0.63486
G1 X117.334 Y64.557 E0.66114
G1 X118.074 Y64.831 E0.68739
G1 X118.783 Y65.179 E0.71366
G1 X119.454 Y65.597 E0.73995
G1 X120.078 Y66.08 E0.76619
G1 X120.651 Y66.623 E0.79245
G1 X121.166 Y67.222 E0.81872
G1 X121.617 Y67.87 E0.84498
G1 X122.001 Y68.561 E0.87128
G1 X122.313 Y69.286 E0.89753
G1 X122.55 Y70.039 E0.92378
G1 X122.709 Y70.813 E0.95007
G1 X122.79 Y71.598 E0.97631
G1 X122.8 Y72 E0.98969
G1 X122.8 Y97.025 E1.82202
G1 X123.393 Y97.278 E1.84347
G1 X124.237 Y97.701 E1.87487
G1 X126.598 Y99.069 E1.96562
G1 X127.376 Y99.584 E1.99665
G1 X129.615 Y101.268 E2.08984
G1 X130.349 Y101.894 E2.12192
G1 X132.397 Y103.874 E2.21667
G1 X133.036 Y104.573 E2.24817
G1 X134.766 Y106.709 E2.33959
G1 X135.313 Y107.474 E2.37087
G1 X136.8 Y109.845 E2.46395
G1 X137.255 Y110.679 E2.49555
G1 X138.456 Y113.242 E2.58969
G1 X138.808 Y114.131 E2.6215
G1 X139.664 Y116.753 E2.71323
G1 X139.901 Y117.663 E2.74451
G1 X140.445 Y120.418 E2.83791
G1 X140.572 Y121.36 E2.86953
G1 X140.777 Y124.163 E2.963
G1 X140.789 Y125.108 E2.99444
G1 X140.656 Y127.864 E3.08621
G1 X140.553 Y128.808 E3.11779
G1 X140.075 Y131.592 E3.21174
G1 X139.858 Y132.515 E3.24328
G1 X139.053 Y135.196 E3.33638
G1 X138.717 Y136.104 E3.36858
G1 X137.564 Y138.715 E3.46352
G1 X137.132 Y139.552 E3.49484
G1 X135.729 Y141.91 E3.5861
G1 X135.199 Y142.69 E3.61747
G1 X133.489 Y144.904 E3.71051
G1 X132.862 Y145.621 E3.74219
G1 X130.867 Y147.638 E3.83655
G1 X130.159 Y148.271 E3.86814
G1 X127.993 Y149.984 E3.95999
G1 X127.217 Y150.525 E3.99145
G1 X124.827 Y151.983 E4.08457
G1 X123.99 Y152.426 E4.11606
G1 X121.424 Y153.591 E4.20979
G1 X120.535 Y153.931 E4.24145
G1 X117.903 Y154.757 E4.3332
G1 X116.988 Y154.985 E4.36456
G1 X114.213 Y155.499 E4.45843
G1 X113.269 Y155.614 E4.49006
G1 X110.477 Y155.785 E4.5831
G1 X109.533 Y155.786 E4.61449
G1 X106.781 Y155.621 E4.70619
G1 X105.829 Y155.505 E4.73809
G1 X103.035 Y154.988 E4.83259
G1 X102.122 Y154.761 E4.86389
G1 X99.451 Y153.924 E4.95698
G1 X98.554 Y153.581 E4.98892
G1 X95.968 Y152.405 E5.08341
G1 X95.126 Y151.958 E5.11512
G1 X92.776 Y150.52 E5.20675
G1 X92.005 Y149.982 E5.23802
G1 X89.809 Y148.243 E5.33119
G1 X89.1 Y147.607 E5.36287
G1 X87.117 Y145.598 E5.45675
G1 X86.494 Y144.885 E5.48825
G1 X84.808 Y142.701 E5.58001
G1 X84.275 Y141.916 E5.61157
G1 X82.838 Y139.495 E5.70521
G1 X82.406 Y138.656 E5.7366
G1 X81.277 Y136.091 E5.82981
G1 X80.941 Y135.177 E5.8622
G1 X80.124 Y132.436 E5.95733
G1 X79.91 Y131.518 E5.98868
G1 X79.451 Y128.823 E6.07961
G1 X79.349 Y127.895 E6.11066
G1 X79.212 Y125.102 E6.20366
G1 X79.224 Y124.144 E6.23553
G1 X79.434 Y121.307 E6.33015
G1 X79.562 Y120.365 E6.36177
G1 X80.098 Y117.663 E6.45339
G1 X80.336 Y116.754 E6.48464
G1 X81.206 Y114.097 E6.57763
G1 X81.559 Y113.208 E6.60944
G1 X82.761 Y110.649 E6.70348
G1 X83.215 Y109.818 E6.73497
G1 X84.682 Y107.481 E6.82675
G1 X85.232 Y106.712 E6.85819
G1 X87.005 Y104.528 E6.95175
G1 X87.645 Y103.831 E6.98323
G1 X89.664 Y101.883 E7.07654
G1 X90.386 Y101.266 E7.10813
G1 X92.592 Y99.604 E7.19999
G1 X93.385 Y99.08 E7.23161
G1 X95.833 Y97.666 E7.32563
G1 X96.679 Y97.243 E7.35709
G1 X97.2 Y97.021 E7.37593
G1 X97.2 Y72 E8.20813
G1 X97.24 Y71.211 E8.23441
G1 X97.359 Y70.431 E8.26065
G1 X97.557 Y69.666 E8.28693
G1 X97.831 Y68.926 E8.31318
G1 X98.179 Y68.217 E8.33945
G1 X98.597 Y67.546 E8.36574
M204 S5000
M205 X30 Y30
G0 F3600 X98.994 Y67.677
M204 S500
M205 X20 Y20
G1 F1800 X99.475 Y67.077 E8.39132
G1 X100.016 Y66.53 E8.41691
G1 X100.611 Y66.042 E8.4425
G1 X101.253 Y65.619 E8.46807
G1 X101.936 Y65.264 E8.49367
G1 X102.651 Y64.983 E8.51922
G1 X103.393 Y64.777 E8.54484
G1 X104.151 Y64.649 E8.57041
G1 X105 Y64.6 E8.59869
G1 X115 Y64.6 E8.93129
G1 X115.768 Y64.64 E8.95687
G1 X116.528 Y64.759 E8.98246
G1 X117.271 Y64.957 E9.00803
G1 X117.99 Y65.231 E9.03362
G1 X118.676 Y65.578 E9.05919
G1 X119.323 Y65.994 E9.08477
G1 X119.923 Y66.475 E9.11035
G1 X120.47 Y67.016 E9.13594
G1 X120.958 Y67.611 E9.16153
G1 X121.381 Y68.253 E9.18711
G1 X121.736 Y68.936 E9.21271
G1 X122.017 Y69.651 E9.23826
G1 X122.223 Y70.393 E9.26387
G1 X122.351 Y71.151 E9.28944
G1 X122.4 Y72 E9.31773
G1 X122.4 Y97.289 E10.15884
G1 X123.236 Y97.646 E10.18908
G1 X124.037 Y98.047 E10.21887
G1 X126.398 Y99.415 E10.30963
G1 X127.136 Y99.904 E10.33907
G1 X129.375 Y101.588 E10.43225
G1 X130.071 Y102.182 E10.46269
G1 X132.119 Y104.162 E10.55743
G1 X132.725 Y104.825 E10.58731
G1 X134.455 Y106.961 E10.67873
G1 X134.974 Y107.686 E10.70838
G1 X136.461 Y110.057 E10.80147
G1 X136.893 Y110.849 E10.83148
G1 X138.094 Y113.412 E10.92562
G1 X138.428 Y114.255 E10.95578
G1 X139.284 Y116.877 E11.04751
G1 X139.509 Y117.74 E11.07718
G1 X140.053 Y120.495 E11.17058
G1 X140.173 Y121.389 E11.20058
G1 X140.378 Y124.192 E11.29406
G1 X140.389 Y125.089 E11.32389
G1 X140.256 Y127.845 E11.41566
G1 X140.158 Y128.74 E11.44561
G1 X139.68 Y131.524 E11.53956
G1 X139.474 Y132.4 E11.56949
G1 X138.669 Y135.081 E11.66259
G1 X138.351 Y135.942 E11.69312
G1 X137.198 Y138.553 E11.78806
G1 X136.788 Y139.348 E11.81781
G1 X135.385 Y141.706 E11.90907
G1 X134.883 Y142.445 E11.93878
G1 X133.173 Y144.659 E12.03182
G1 X132.577 Y145.34 E12.06192
G1 X130.582 Y147.357 E12.15628
G1 X129.911 Y147.957 E12.18622
G1 X127.745 Y149.67 E12.27807
G1 X127.009 Y150.183 E12.30791
G1 X124.619 Y151.641 E12.40102
G1 X123.824 Y152.062 E12.43094
G1 X121.258 Y153.227 E12.52467
G1 X120.415 Y153.549 E12.55469
G1 X117.783 Y154.375 E12.64644
G1 X116.915 Y154.591 E12.67619
G1 X114.14 Y155.105 E12.77005
G1 X113.244 Y155.215 E12.80008
G1 X110.452 Y155.386 E12.89312
G1 X109.557 Y155.387 E12.92288
G1 X106.805 Y155.222 E13.01458
G1 X105.902 Y155.111 E13.04484
G1 X103.108 Y154.594 E13.13935
G1 X102.241 Y154.379 E13.16906
G1 X99.57 Y153.542 E13.26215
G1 X98.72 Y153.217 E13.29242
G1 X96.134 Y152.041 E13.38691
G1 X95.335 Y151.617 E13.41699
G1 X92.985 Y150.179 E13.50863
G1 X92.253 Y149.668 E13.53832
G1 X90.057 Y147.929 E13.63149
G1 X89.384 Y147.326 E13.66154
G1 X87.401 Y145.317 E13.75543
G1 X86.81 Y144.641 E13.78529
G1 X85.124 Y142.457 E13.87706
G1 X84.619 Y141.712 E13.90699
G1 X83.182 Y139.291 E14.00063
G1 X82.772 Y138.495 E14.03041
G1 X81.643 Y135.93 E14.12363
G1 X81.324 Y135.063 E14.15435
G1 X80.507 Y132.322 E14.24948
G1 X80.304 Y131.45 E14.27926
G1 X79.845 Y128.755 E14.37019
G1 X79.749 Y127.876 E14.3996
G1 X79.612 Y125.083 E14.4926
G1 X79.623 Y124.174 E14.52284
G1 X79.833 Y121.337 E14.61746
G1 X79.954 Y120.443 E14.64746
G1 X80.49 Y117.741 E14.73908
G1 X80.716 Y116.878 E14.76875
G1 X81.586 Y114.221 E14.86174
G1 X81.921 Y113.378 E14.89191
G1 X83.123 Y110.819 E14.98595
G1 X83.554 Y110.031 E15.01582
G1 X85.021 Y107.694 E15.10759
G1 X85.543 Y106.964 E15.13744
G1 X87.316 Y104.78 E15.23101
G1 X87.923 Y104.119 E15.26086
G1 X89.942 Y102.171 E15.35417
G1 X90.627 Y101.586 E15.38413
G1 X92.833 Y99.924 E15.47599
G1 X93.585 Y99.426 E15.50599
G1 X96.033 Y98.012 E15.60002
G1 X96.836 Y97.611 E15.62987
G1 X97.6 Y97.286 E15.65749
G1 X97.6 Y72 E16.4985
G1 X97.64 Y71.232 E16.52408
G1 X97.759 Y70.472 E16.54967
G1 X97.957 Y69.729 E16.57524
G1 X98.231 Y69.01 E16.60083
G1 X98.578 Y68.324 E16.6264
G1 X98.994 Y67.677 E16.65199
M204 S5000
M205 X30 Y30
G0 F3600 X99.392 Y67.811
M204 S500
M205 X20 Y20
G1 F1800 X99.871 Y67.237 E16.67685
G1 X100.408 Y66.716 E16.70174
G1 X100.998 Y66.257 E16.7266
G1 X101.634 Y65.862 E16.7515
G1 X102.308 Y65.538 E16.77637
G1 X103.013 Y65.288 E16.80125
G1 X103.741 Y65.114 E16.82615
G1 X104.483 Y65.019 E16.85103
G1 X105 Y65 E16.86824
G1 X115 Y65 E17.20084
G1 X115.747 Y65.04 E17.22572
G1 X116.485 Y65.159 E17.25058
G1 X117.207 Y65.357 E17.27548
G1 X117.903 Y65.63 E17.30035
G1 X118.566 Y65.977 E17.32524
G1 X119.189 Y66.392 E17.35013
G1 X119.763 Y66.871 E17.375
G1 X120.284 Y67.408 E17.39989
G1 X120.743 Y67.998 E17.42475
G1 X121.138 Y68.634 E17.44965
G1 X121.462 Y69.308 E17.47452
G1 X121.712 Y70.013 E17.4994
G1 X121.886 Y70.741 E17.5243
G1 X121.981 Y71.483 E17.54918
G1 X122 Y72 E17.56638
G1 X122 Y97.552 E18.41625
G1 X123.079 Y98.013 E18.45527
G1 X123.836 Y98.393 E18.48345
G1 X126.197 Y99.761 E18.5742
G1 X126.896 Y100.224 E18.60209
G1 X129.135 Y101.908 E18.69527
G1 X129.792 Y102.469 E18.724
G1 X131.84 Y104.449 E18.81875
G1 X132.415 Y105.076 E18.84705
G1 X134.145 Y107.212 E18.93847
G1 X134.635 Y107.899 E18.96653
G1 X136.122 Y110.27 E19.05962
G1 X136.531 Y111.019 E19.088
G1 X137.732 Y113.582 E19.18214
G1 X138.047 Y114.38 E19.21068
G1 X138.903 Y117.002 E19.30242
G1 X139.116 Y117.818 E19.33047
G1 X139.66 Y120.573 E19.42387
G1 X139.774 Y121.418 E19.45223
G1 X139.979 Y124.221 E19.5457
G1 X139.99 Y125.069 E19.57391
G1 X139.857 Y127.825 E19.66568
G1 X139.764 Y128.673 E19.69406
G1 X139.286 Y131.457 E19.78801
G1 X139.091 Y132.285 E19.8163
G1 X138.286 Y134.966 E19.9094
G1 X137.985 Y135.781 E19.9383
G1 X136.832 Y138.392 E20.03323
G1 X136.445 Y139.143 E20.06133
G1 X135.042 Y141.501 E20.15259
G1 X134.566 Y142.201 E20.18075
G1 X132.856 Y144.415 E20.27379
G1 X132.293 Y145.059 E20.30224
G1 X130.298 Y147.076 E20.3966
G1 X129.663 Y147.643 E20.42491
G1 X127.497 Y149.356 E20.51676
G1 X126.8 Y149.842 E20.54502
G1 X124.41 Y151.3 E20.63814
G1 X123.659 Y151.698 E20.66641
G1 X121.093 Y152.863 E20.76014
G1 X120.295 Y153.168 E20.78855
G1 X117.663 Y153.994 E20.8803
G1 X116.842 Y154.198 E20.90844
G1 X114.067 Y154.712 E21.00231
G1 X113.22 Y154.816 E21.03069
G1 X110.428 Y154.987 E21.12373
G1 X109.581 Y154.987 E21.1519
G1 X106.829 Y154.822 E21.24359
G1 X105.974 Y154.718 E21.27224
G1 X103.18 Y154.201 E21.36675
G1 X102.361 Y153.998 E21.39481
G1 X99.69 Y153.161 E21.48791
G1 X98.885 Y152.853 E21.51658
G1 X96.299 Y151.677 E21.61106
G1 X95.543 Y151.276 E21.63953
G1 X93.193 Y149.838 E21.73116
G1 X92.501 Y149.355 E21.75923
G1 X90.305 Y147.616 E21.8524
G1 X89.669 Y147.045 E21.88082
G1 X87.686 Y145.036 E21.97471
G1 X87.127 Y144.397 E22.00295
G1 X85.441 Y142.213 E22.09472
G1 X84.963 Y141.508 E22.12305
G1 X83.526 Y139.087 E22.21668
G1 X83.138 Y138.334 E22.24486
G1 X82.009 Y135.769 E22.33807
G1 X81.708 Y134.949 E22.36712
G1 X80.891 Y132.208 E22.46225
G1 X80.698 Y131.383 E22.49043
G1 X80.239 Y128.688 E22.58136
G1 X80.148 Y127.856 E22.6092
G1 X80.011 Y125.063 E22.7022
G1 X80.022 Y124.203 E22.73081
G1 X80.232 Y121.366 E22.82543
G1 X80.347 Y120.521 E22.85379
G1 X80.883 Y117.819 E22.94541
G1 X81.097 Y117.003 E22.97347
G1 X81.967 Y114.346 E23.06646
G1 X82.283 Y113.548 E23.095
G1 X83.485 Y110.989 E23.18904
G1 X83.892 Y110.243 E23.2173
G1 X85.359 Y107.906 E23.30908
G1 X85.853 Y107.216 E23.3373
G1 X87.626 Y105.032 E23.43087
G1 X88.201 Y104.406 E23.45914
G1 X90.22 Y102.458 E23.55245
G1 X90.868 Y101.905 E23.58078
G1 X93.074 Y100.243 E23.67265
G1 X93.785 Y99.773 E23.701
G1 X96.233 Y98.359 E23.79502
G1 X96.993 Y97.979 E23.82328
G1 X98 Y97.55 E23.85969
G1 X98 Y72 E24.70949
G1 X98.04 Y71.253 E24.73437
G1 X98.159 Y70.515 E24.75923
G1 X98.357 Y69.793 E24.78413
G1 X98.63 Y69.097 E24.809
G1 X98.977 Y68.434 E24.83389
G1 X99.392 Y67.811 E24.85878
M204 S5000
M205 X30 Y30
G0 F3600 X99.789 Y67.95
M204 S500
M205 X20 Y20
G1 F1800 X100.265 Y67.402 E24.88293
G1 X100.799 Y66.909 E24.9071
G1 X101.384 Y66.479 E24.93125
G1 X102.013 Y66.115 E24.95542
G1 X102.678 Y65.822 E24.97959
G1 X103.371 Y65.604 E25.00375
G1 X104.083 Y65.464 E25.02789
G1 X105 Y65.4 E25.05846
G1 X115 Y65.4 E25.39106
G1 X115.725 Y65.44 E25.41521
G1 X116.442 Y65.559 E25.43938
G1 X117.141 Y65.757 E25.46355
G1 X117.814 Y66.03 E25.4877
G1 X118.453 Y66.375 E25.51186
G1 X119.05 Y66.789 E25.53602
G1 X119.598 Y67.265 E25.56016
G1 X120.091 Y67.799 E25.58434
G1 X120.521 Y68.384 E25.60848
G1 X120.885 Y69.013 E25.63265
G1 X121.178 Y69.678 E25.65682
G1 X121.396 Y70.371 E25.68099
G1 X121.536 Y71.083 E25.70512
G1 X121.6 Y72 E25.7357
G1 X121.6 Y97.816 E26.59434
G1 X122.921 Y98.381 E26.64213
G1 X123.636 Y98.739 E26.66872
G1 X125.997 Y100.107 E26.75948
G1 X126.655 Y100.543 E26.78573
G1 X128.894 Y102.227 E26.87891
G1 X129.514 Y102.757 E26.90604
G1 X131.562 Y104.737 E27.00079
G1 X132.104 Y105.328 E27.02746
G1 X133.834 Y107.464 E27.11888
G1 X134.296 Y108.111 E27.14532
G1 X135.783 Y110.482 E27.23841
G1 X136.168 Y111.189 E27.26519
G1 X137.369 Y113.752 E27.35933
G1 X137.667 Y114.504 E27.38623
G1 X138.523 Y117.126 E27.47797
G1 X138.724 Y117.895 E27.5044
G1 X139.268 Y120.65 E27.5978
G1 X139.375 Y121.448 E27.62458
G1 X139.58 Y124.251 E27.71806
G1 X139.59 Y125.05 E27.74464
G1 X139.457 Y127.806 E27.83641
G1 X139.37 Y128.605 E27.86314
G1 X138.892 Y131.389 E27.95709
G1 X138.708 Y132.17 E27.98378
G1 X137.903 Y134.851 E28.07688
G1 X137.62 Y135.619 E28.10411
G1 X136.467 Y138.23 E28.19904
G1 X136.101 Y138.939 E28.22558
G1 X134.698 Y141.297 E28.31684
G1 X134.249 Y141.956 E28.34336
G1 X132.539 Y144.17 E28.4364
G1 X132.008 Y144.777 E28.46323
G1 X130.013 Y146.794 E28.55758
G1 X129.415 Y147.33 E28.58429
G1 X127.249 Y149.043 E28.67614
G1 X126.592 Y149.5 E28.70276
G1 X124.202 Y150.958 E28.79588
G1 X123.493 Y151.334 E28.82257
G1 X120.927 Y152.499 E28.9163
G1 X120.175 Y152.786 E28.94307
G1 X117.543 Y153.612 E29.03482
G1 X116.769 Y153.805 E29.06135
G1 X113.994 Y154.319 E29.15522
G1 X113.195 Y154.417 E29.18199
G1 X110.403 Y154.588 E29.27503
G1 X109.605 Y154.588 E29.30157
G1 X106.853 Y154.423 E29.39327
G1 X106.047 Y154.325 E29.42027
G1 X103.253 Y153.808 E29.51478
G1 X102.48 Y153.616 E29.54127
G1 X99.809 Y152.779 E29.63437
G1 X99.051 Y152.489 E29.66136
G1 X96.465 Y151.313 E29.75585
G1 X95.752 Y150.935 E29.78269
G1 X93.402 Y149.497 E29.87432
G1 X92.75 Y149.041 E29.90079
G1 X90.554 Y147.302 E29.99395
G1 X89.954 Y146.764 E30.02076
G1 X87.971 Y144.755 E30.11464
G1 X87.444 Y144.152 E30.14128
G1 X85.758 Y141.968 E30.23305
G1 X85.306 Y141.304 E30.25976
G1 X83.869 Y138.883 E30.3534
G1 X83.504 Y138.173 E30.37995
G1 X82.375 Y135.608 E30.47316
G1 X82.091 Y134.834 E30.50059
G1 X81.274 Y132.093 E30.59572
G1 X81.093 Y131.316 E30.62225
G1 X80.634 Y128.621 E30.71318
G1 X80.548 Y127.836 E30.73944
G1 X80.411 Y125.043 E30.83245
G1 X80.421 Y124.233 E30.85939
G1 X80.631 Y121.396 E30.95401
G1 X80.739 Y120.599 E30.98076
G1 X81.275 Y117.897 E31.07238
G1 X81.477 Y117.127 E31.09886
G1 X82.347 Y114.47 E31.19185
G1 X82.645 Y113.718 E31.21875
G1 X83.847 Y111.159 E31.31279
G1 X84.231 Y110.456 E31.33943
G1 X85.698 Y108.119 E31.4312
G1 X86.164 Y107.468 E31.45783
G1 X87.937 Y105.284 E31.55139
G1 X88.478 Y104.694 E31.57802
G1 X90.497 Y102.746 E31.67133
G1 X91.109 Y102.225 E31.69806
G1 X93.315 Y100.563 E31.78993
G1 X93.985 Y100.119 E31.81666
G1 X96.433 Y98.705 E31.91069
G1 X97.149 Y98.347 E31.93731
G1 X98.4 Y97.815 E31.98253
G1 X98.4 Y72 E32.84114
G1 X98.44 Y71.275 E32.86529
G1 X98.559 Y70.558 E32.88946
G1 X98.757 Y69.859 E32.91363
G1 X99.03 Y69.186 E32.93778
G1 X99.375 Y68.547 E32.96193
G1 X99.789 Y67.95 E32.9861
M204 S5000
M205 X30 Y30
G0 F3600 X99.774 Y68.665
M204 S500
M205 X20 Y20
G1 F1800 X100.185 Y68.094 E33.0095
G1 X100.659 Y67.573 E33.03292
G1 X101.189 Y67.109 E33.05635
G1 X101.768 Y66.709 E33.07976
G1 X102.389 Y66.377 E33.10318
G1 X103.043 Y66.117 E33.12659
G1 X103.723 Y65.933 E33.15002
G1 X104.419 Y65.827 E33.17343
G1 X105 Y65.8 E33.19278
G1 X115 Y65.8 E33.52538
G1 X115.703 Y65.84 E33.5488
G1 X116.397 Y65.959 E33.57222
G1 X117.072 Y66.157 E33.59562
G1 X117.721 Y66.429 E33.61902
G1 X118.335 Y66.774 E33.64245
G1 X118.906 Y67.185 E33.66585
G1 X119.427 Y67.659 E33.68927
G1 X119.891 Y68.189 E33.7127
G1 X120.291 Y68.768 E33.73611
G1 X120.623 Y69.389 E33.75953
G1 X120.883 Y70.043 E33.78294
