;FLAVOR:Marlin
;TIME:3682
;Filament used: 3.57836m
;Layer height: 0.15
;Generated with Cura_SteamEngine 3.6.0
M140 S60
M105
M190 S60
M104 S200
M105
M109 S200
M82 ;absolute extrusion mode
G28 ;Home
G1 Z15.0 F6000 ;Move the platform down 15mm
;Prime the extruder
G92 E0
G1 F200 E3
G92 E0
G92 E0
G1 F2400 E-5
;LAYER_COUNT:314
;LAYER:0
M107
M204 S5000
M205 X30 Y30
G0 F3600 X136.855 Y94.714 Z0.2
M204 S500
M205 X20 Y20
;TYPE:SKIRT
G1 F2400 E0
G1 F1800 X137.338 Y94.09 E0.02625
G1 X137.743 Y93.653 E0.04606
G1 X137.86 Y93.536 E0.05157
G1 X138.446 Y93.006 E0.07785
G1 X139.082 Y92.539 E0.10409
G1 X139.762 Y92.138 E0.13035
G1 X140.48 Y91.808 E0.15663
G1 X141.227 Y91.553 E0.18288
G1 X141.996 Y91.374 E0.20914
G1 X142.78 Y91.274 E0.23543
G1 X143.375 Y91.251 E0.25523
G1 X148.141 Y91.251 E0.41375
G1 X148.93 Y91.291 E0.44003
G1 X149.054 Y91.31 E0.4442
G1 X149.335 Y91.274 E0.45362
G1 X149.93 Y91.251 E0.47343
G1 X154.696 Y91.251 E0.63194
G1 X155.485 Y91.291 E0.65822
G1 X156.265 Y91.41 E0.68446
G1 X157.03 Y91.608 E0.71075
G1 X157.77 Y91.882 E0.73699
G1 X158.479 Y92.23 E0.76326
G1 X159.15 Y92.648 E0.78955
G1 X159.774 Y93.131 E0.8158
G1 X160.211 Y93.536 E0.83562
G1 X160.328 Y93.653 E0.84112
G1 X160.858 Y94.239 E0.8674
G1 X161.325 Y94.875 E0.89364
G1 X161.726 Y95.555 E0.9199
G1 X162.056 Y96.273 E0.94618
G1 X162.311 Y97.02 E0.97243
G1 X162.49 Y97.789 E0.9987
G1 X162.59 Y98.573 E1.02498
G1 X162.613 Y99.168 E1.04479
G1 X162.613 Y103.531 E1.1899
G1 X163.315 Y104.071 E1.21936
G1 X164.79 Y105.365 E1.28462
G1 X165.509 Y106.084 E1.31844
G1 X166.803 Y107.559 E1.3837
G1 X167.429 Y108.375 E1.41791
G1 X168.518 Y110.008 E1.48319
G1 X169.025 Y110.886 E1.51691
G1 X169.892 Y112.644 E1.58211
G1 X170.285 Y113.595 E1.61633
G1 X170.914 Y115.455 E1.68164
G1 X171.175 Y116.432 E1.71527
G1 X171.557 Y118.352 E1.78038
G1 X171.69 Y119.367 E1.81443
G1 X171.818 Y121.331 E1.87989
G1 X171.818 Y122.354 E1.91392
G1 X171.688 Y124.313 E1.97922
G1 X171.553 Y125.327 E2.01324
G1 X171.168 Y127.251 E2.0785
G1 X170.907 Y128.225 E2.11204
G1 X170.278 Y130.081 E2.17722
G1 X169.884 Y131.032 E2.21146
G1 X169.017 Y132.787 E2.27656
G1 X168.509 Y133.666 E2.31033
G1 X167.417 Y135.3 E2.3757
G1 X166.792 Y136.114 E2.40983
G1 X165.498 Y137.587 E2.47504
G1 X164.78 Y138.304 E2.50879
G1 X163.304 Y139.598 E2.57408
G1 X162.493 Y140.22 E2.60807
G1 X160.856 Y141.313 E2.67354
G1 X159.969 Y141.825 E2.7076
G1 X158.213 Y142.689 E2.7727
G1 X157.27 Y143.078 E2.80662
G1 X155.415 Y143.706 E2.87176
G1 X154.436 Y143.968 E2.90547
G1 X152.511 Y144.351 E2.97075
G1 X151.494 Y144.485 E3.00487
G1 X149.535 Y144.612 E3.07016
G1 X148.519 Y144.611 E3.10395
G1 X146.555 Y144.482 E3.16942
G1 X145.534 Y144.347 E3.20367
G1 X143.612 Y143.962 E3.26887
G1 X142.639 Y143.701 E3.30237
G1 X140.784 Y143.072 E3.36752
G1 X139.834 Y142.678 E3.40173
G1 X138.077 Y141.81 E3.46691
G1 X137.192 Y141.298 E3.50091
G1 X135.56 Y140.205 E3.56624
G1 X134.758 Y139.589 E3.59988
G1 X133.281 Y138.294 E3.66521
G1 X132.556 Y137.569 E3.69931
G1 X131.261 Y136.091 E3.76467
G1 X130.637 Y135.277 E3.79879
G1 X129.55 Y133.646 E3.86398
G1 X129.045 Y132.77 E3.89761
G1 X128.178 Y131.012 E3.9628
G1 X127.785 Y130.06 E3.99706
G1 X127.158 Y128.205 E4.06218
G1 X126.897 Y127.231 E4.09572
G1 X126.514 Y125.308 E4.16094
G1 X126.38 Y124.287 E4.19519
G1 X126.253 Y122.323 E4.26065
G1 X126.254 Y121.307 E4.29444
G1 X126.383 Y119.348 E4.35974
G1 X126.518 Y118.331 E4.39386
G1 X126.903 Y116.407 E4.45912
G1 X127.164 Y115.433 E4.49266
G1 X127.792 Y113.58 E4.55773
G1 X128.187 Y112.627 E4.59205
G1 X129.059 Y110.863 E4.65749
G1 X129.57 Y109.98 E4.69143
G1 X130.659 Y108.354 E4.75651
G1 X131.277 Y107.55 E4.79024
G1 X132.571 Y106.075 E4.8555
G1 X133.29 Y105.356 E4.88932
G1 X134.765 Y104.062 E4.95459
G1 X135.458 Y103.53 E4.98364
G1 X135.458 Y99.168 E5.12872
G1 X135.498 Y98.379 E5.155
G1 X135.617 Y97.599 E5.18124
G1 X135.815 Y96.834 E5.20753
G1 X136.089 Y96.094 E5.23377
G1 X136.437 Y95.385 E5.26004
G1 X136.855 Y94.714 E5.28633
M204 S5000
M205 X30 Y30
G0 F3600 X137.252 Y94.845
M204 S500
M205 X20 Y20
G1 F1800 X137.733 Y94.245 E5.31191
G1 X138.025 Y93.935 E5.32608
G1 X138.142 Y93.818 E5.33158
G1 X138.714 Y93.304 E5.35716
G1 X139.336 Y92.851 E5.38275
G1 X140.001 Y92.465 E5.40832
G1 X140.703 Y92.15 E5.43391
G1 X141.434 Y91.91 E5.4595
G1 X142.185 Y91.747 E5.48506
G1 X142.95 Y91.663 E5.51066
G1 X143.375 Y91.651 E5.5248
G1 X148.141 Y91.651 E5.68332
G1 X148.909 Y91.691 E5.7089
G1 X149.05 Y91.713 E5.71365
G1 X149.505 Y91.663 E5.72887
G1 X149.93 Y91.651 E5.74301
G1 X154.696 Y91.651 E5.90153
G1 X155.464 Y91.691 E5.92711
G1 X156.224 Y91.81 E5.95269
G1 X156.967 Y92.008 E5.97827
G1 X157.686 Y92.282 E6.00386
G1 X158.372 Y92.629 E6.02943
G1 X159.019 Y93.045 E6.05501
G1 X159.619 Y93.526 E6.08059
G1 X159.929 Y93.818 E6.09475
G1 X160.046 Y93.935 E6.10026
G1 X160.56 Y94.507 E6.12583
G1 X161.013 Y95.129 E6.15143
G1 X161.399 Y95.794 E6.177
G1 X161.714 Y96.496 E6.20259
G1 X161.954 Y97.227 E6.22818
G1 X162.117 Y97.978 E6.25374
G1 X162.201 Y98.743 E6.27934
G1 X162.213 Y99.168 E6.29348
G1 X162.213 Y103.735 E6.44538
G1 X162.289 Y103.786 E6.44842
G1 X163.051 Y104.371 E6.48038
G1 X164.526 Y105.665 E6.54564
G1 X165.209 Y106.348 E6.57776
G1 X166.503 Y107.823 E6.64303
G1 X167.097 Y108.597 E6.67548
G1 X168.186 Y110.23 E6.74076
G1 X168.666 Y111.063 E6.77274
G1 X169.533 Y112.821 E6.83793
G1 X169.906 Y113.723 E6.8704
G1 X170.535 Y115.583 E6.9357
G1 X170.783 Y116.51 E6.96762
G1 X171.165 Y118.43 E7.03273
G1 X171.291 Y119.393 E7.06503
G1 X171.419 Y121.357 E7.13049
G1 X171.419 Y122.328 E7.16279
G1 X171.289 Y124.287 E7.22809
G1 X171.161 Y125.249 E7.26037
G1 X170.776 Y127.173 E7.32563
G1 X170.528 Y128.096 E7.35742
G1 X169.899 Y129.952 E7.42259
G1 X169.526 Y130.855 E7.45509
G1 X168.659 Y132.61 E7.5202
G1 X168.177 Y133.444 E7.55223
G1 X167.085 Y135.078 E7.6176
G1 X166.491 Y135.85 E7.65
G1 X165.197 Y137.323 E7.71521
G1 X164.516 Y138.003 E7.74722
G1 X163.04 Y139.297 E7.81251
G1 X162.271 Y139.887 E7.84474
G1 X160.634 Y140.98 E7.91021
G1 X159.792 Y141.466 E7.94255
G1 X158.036 Y142.33 E8.00764
G1 X157.142 Y142.699 E8.03981
G1 X155.287 Y143.327 E8.10494
G1 X154.358 Y143.576 E8.13693
G1 X152.433 Y143.959 E8.20221
G1 X151.468 Y144.085 E8.23458
G1 X149.509 Y144.212 E8.29987
G1 X148.545 Y144.212 E8.33194
G1 X146.581 Y144.083 E8.3974
G1 X145.613 Y143.955 E8.42988
G1 X143.691 Y143.57 E8.49507
G1 X142.768 Y143.322 E8.52686
G1 X140.913 Y142.693 E8.59201
G1 X140.011 Y142.32 E8.62447
G1 X138.254 Y141.452 E8.68965
G1 X137.414 Y140.965 E8.72195
G1 X135.782 Y139.872 E8.78728
G1 X135.021 Y139.288 E8.81918
G1 X133.544 Y137.993 E8.88452
G1 X132.857 Y137.306 E8.91683
G1 X131.562 Y135.828 E8.98219
G1 X130.97 Y135.055 E9.01457
G1 X129.883 Y133.424 E9.07976
G1 X129.404 Y132.593 E9.11167
G1 X128.537 Y130.835 E9.17686
G1 X128.164 Y129.932 E9.20936
G1 X127.537 Y128.077 E9.27448
G1 X127.29 Y127.152 E9.30633
G1 X126.907 Y125.229 E9.37154
G1 X126.779 Y124.262 E9.40399
G1 X126.652 Y122.298 E9.46944
G1 X126.653 Y121.334 E9.50151
G1 X126.782 Y119.375 E9.56681
G1 X126.91 Y118.409 E9.59922
G1 X127.295 Y116.485 E9.66448
G1 X127.543 Y115.562 E9.69626
G1 X128.171 Y113.709 E9.76134
G1 X128.545 Y112.805 E9.79388
G1 X129.417 Y111.041 E9.85933
G1 X129.903 Y110.202 E9.89157
G1 X130.992 Y108.576 E9.95666
G1 X131.577 Y107.814 E9.98862
G1 X132.871 Y106.339 E10.05388
G1 X133.554 Y105.656 E10.086
G1 X135.029 Y104.362 E10.15127
G1 X135.805 Y103.767 E10.18379
G1 X135.858 Y103.732 E10.1859
G1 X135.858 Y99.168 E10.3377
G1 X135.898 Y98.4 E10.36328
G1 X136.017 Y97.64 E10.38886
G1 X136.215 Y96.897 E10.41444
G1 X136.489 Y96.178 E10.44003
G1 X136.836 Y95.492 E10.4656
G1 X137.252 Y94.845 E10.49118
M204 S5000
M205 X30 Y30
G0 F3600 X137.65 Y94.979
M204 S500
M205 X20 Y20
G1 F1800 X138.308 Y94.218 E10.52464
G1 X138.425 Y94.101 E10.53015
G1 X138.982 Y93.601 E10.55504
G1 X139.588 Y93.164 E10.57989
G1 X140.238 Y92.793 E10.60479
G1 X140.924 Y92.494 E10.62967
G1 X141.638 Y92.27 E10.65456
G1 X142.371 Y92.123 E10.67943
G1 X143.375 Y92.051 E10.71291
G1 X148.141 Y92.051 E10.87143
G1 X148.888 Y92.091 E10.89631
G1 X149.037 Y92.115 E10.90133
G1 X149.93 Y92.051 E10.9311
G1 X154.696 Y92.051 E11.08962
G1 X155.443 Y92.091 E11.1145
G1 X156.181 Y92.21 E11.13937
G1 X156.903 Y92.408 E11.16427
G1 X157.599 Y92.681 E11.18913
G1 X158.262 Y93.028 E11.21402
G1 X158.885 Y93.443 E11.23892
G1 X159.646 Y94.101 E11.27238
G1 X159.763 Y94.218 E11.27788
G1 X160.263 Y94.775 E11.30278
G1 X160.7 Y95.381 E11.32763
G1 X161.071 Y96.031 E11.35252
G1 X161.37 Y96.717 E11.37741
G1 X161.594 Y97.431 E11.4023
G1 X161.741 Y98.164 E11.42716
G1 X161.813 Y99.168 E11.46064
G1 X161.813 Y103.949 E11.61966
G1 X162.066 Y104.118 E11.62978
G1 X162.787 Y104.672 E11.66002
G1 X164.262 Y105.966 E11.72528
G1 X164.908 Y106.612 E11.75567
G1 X166.202 Y108.087 E11.82093
G1 X166.764 Y108.819 E11.85162
G1 X167.853 Y110.452 E11.91691
G1 X168.307 Y111.24 E11.94716
G1 X169.174 Y112.998 E12.01235
G1 X169.527 Y113.852 E12.04309
G1 X170.156 Y115.712 E12.10839
G1 X170.39 Y116.588 E12.13855
G1 X170.772 Y118.508 E12.20366
G1 X170.892 Y119.419 E12.23422
G1 X171.02 Y121.383 E12.29968
G1 X171.02 Y122.302 E12.33025
G1 X170.89 Y124.261 E12.39555
G1 X170.769 Y125.17 E12.42605
G1 X170.384 Y127.094 E12.49131
G1 X170.15 Y127.968 E12.5214
G1 X169.521 Y129.824 E12.58658
G1 X169.167 Y130.677 E12.6173
G1 X168.3 Y132.432 E12.68241
G1 X167.844 Y133.221 E12.71272
G1 X166.752 Y134.855 E12.77808
G1 X166.191 Y135.586 E12.80873
G1 X164.897 Y137.059 E12.87394
G1 X164.253 Y137.703 E12.90423
G1 X162.777 Y138.997 E12.96952
G1 X162.049 Y139.555 E13.00003
G1 X160.412 Y140.648 E13.0655
G1 X159.615 Y141.107 E13.09609
G1 X157.859 Y141.971 E13.16118
G1 X157.014 Y142.32 E13.19158
G1 X155.159 Y142.948 E13.25672
G1 X154.28 Y143.183 E13.28698
G1 X152.355 Y143.566 E13.35227
G1 X151.442 Y143.686 E13.38289
G1 X149.483 Y143.813 E13.44819
G1 X148.571 Y143.813 E13.47852
G1 X146.607 Y143.684 E13.54398
G1 X145.691 Y143.563 E13.57471
G1 X143.769 Y143.178 E13.63991
G1 X142.896 Y142.943 E13.66998
G1 X141.041 Y142.314 E13.73513
G1 X140.189 Y141.961 E13.7658
G1 X138.432 Y141.093 E13.83098
G1 X137.637 Y140.633 E13.86153
G1 X136.005 Y139.54 E13.92686
G1 X135.285 Y138.987 E13.95706
G1 X133.808 Y137.692 E14.02239
G1 X133.158 Y137.042 E14.05296
G1 X131.863 Y135.564 E14.11832
G1 X131.303 Y134.833 E14.14895
G1 X130.216 Y133.202 E14.21414
G1 X129.763 Y132.416 E14.24431
G1 X128.896 Y130.658 E14.30951
G1 X128.543 Y129.803 E14.34027
G1 X127.916 Y127.948 E14.4054
G1 X127.682 Y127.074 E14.43549
G1 X127.299 Y125.151 E14.50071
G1 X127.179 Y124.236 E14.5314
G1 X127.052 Y122.272 E14.59686
G1 X127.052 Y121.36 E14.6272
G1 X127.181 Y119.401 E14.69249
G1 X127.302 Y118.488 E14.72313
G1 X127.687 Y116.564 E14.78839
G1 X127.921 Y115.69 E14.81848
G1 X128.549 Y113.837 E14.88355
G1 X128.904 Y112.982 E14.91435
G1 X129.776 Y111.218 E14.97979
G1 X130.235 Y110.425 E15.01027
G1 X131.324 Y108.799 E15.07536
G1 X131.878 Y108.078 E15.1056
G1 X133.172 Y106.603 E15.17086
G1 X133.818 Y105.957 E15.20125
G1 X135.293 Y104.663 E15.26651
G1 X136.027 Y104.1 E15.29728
G1 X136.258 Y103.946 E15.30651
G1 X136.258 Y99.168 E15.46543
G1 X136.298 Y98.421 E15.49031
G1 X136.417 Y97.683 E15.51517
G1 X136.615 Y96.961 E15.54007
G1 X136.888 Y96.265 E15.56494
G1 X137.235 Y95.602 E15.58983
G1 X137.65 Y94.979 E15.61473
M204 S5000
M205 X30 Y30
G0 F3600 X138.047 Y95.118
M204 S500
M205 X20 Y20
G1 F1800 X138.591 Y94.501 E15.64208
G1 X138.708 Y94.384 E15.64759
G1 X139.249 Y93.9 E15.67173
G1 X139.84 Y93.477 E15.6959
G1 X140.474 Y93.123 E15.72006
G1 X141.143 Y92.84 E15.74422
G1 X141.839 Y92.632 E15.76838
G1 X142.554 Y92.502 E15.79255
G1 X143.375 Y92.451 E15.81991
G1 X148.141 Y92.451 E15.97842
G1 X148.866 Y92.491 E16.00257
G1 X149.025 Y92.517 E16.00793
G1 X149.109 Y92.502 E16.01077
G1 X149.93 Y92.451 E16.03813
G1 X154.696 Y92.451 E16.19665
G1 X155.421 Y92.491 E16.2208
G1 X156.138 Y92.61 E16.24497
G1 X156.837 Y92.808 E16.26914
G1 X157.51 Y93.081 E16.29329
G1 X158.149 Y93.426 E16.31744
G1 X158.746 Y93.84 E16.34161
G1 X159.363 Y94.384 E16.36897
G1 X159.48 Y94.501 E16.37447
G1 X159.964 Y95.042 E16.39861
G1 X160.387 Y95.633 E16.42279
G1 X160.741 Y96.267 E16.44694
G1 X161.024 Y96.936 E16.4711
G1 X161.232 Y97.632 E16.49526
G1 X161.362 Y98.347 E16.51943
G1 X161.413 Y99.168 E16.54679
G1 X161.413 Y104.161 E16.71286
G1 X161.844 Y104.45 E16.73012
G1 X162.524 Y104.973 E16.75865
G1 X163.999 Y106.267 E16.82391
G1 X164.607 Y106.875 E16.85251
G1 X165.901 Y108.35 E16.91777
G1 X166.431 Y109.041 E16.94673
G1 X167.52 Y110.674 E17.01202
G1 X167.948 Y111.417 E17.04054
G1 X168.815 Y113.175 E17.10573
G1 X169.148 Y113.98 E17.13471
G1 X169.777 Y115.84 E17.20001
G1 X169.998 Y116.666 E17.22845
G1 X170.38 Y118.586 E17.29356
G1 X170.493 Y119.445 E17.32238
G1 X170.621 Y121.409 E17.38784
G1 X170.621 Y122.275 E17.41664
G1 X170.491 Y124.234 E17.48194
G1 X170.377 Y125.092 E17.51073
G1 X169.992 Y127.016 E17.57599
G1 X169.771 Y127.839 E17.60434
G1 X169.142 Y129.695 E17.66952
G1 X168.808 Y130.5 E17.6985
G1 X167.941 Y132.255 E17.76361
G1 X167.511 Y132.999 E17.79219
G1 X166.419 Y134.633 E17.85756
G1 X165.89 Y135.322 E17.88645
G1 X164.596 Y136.795 E17.95166
G1 X163.989 Y137.402 E17.98021
G1 X162.513 Y138.696 E18.0455
G1 X161.827 Y139.222 E18.07425
G1 X160.19 Y140.315 E18.13972
G1 X159.439 Y140.748 E18.16855
G1 X157.683 Y141.612 E18.23364
G1 X156.885 Y141.941 E18.26235
G1 X155.03 Y142.569 E18.32749
G1 X154.202 Y142.791 E18.356
G1 X152.277 Y143.174 E18.42128
G1 X151.416 Y143.287 E18.45016
G1 X149.457 Y143.414 E18.51546
G1 X148.597 Y143.414 E18.54406
G1 X146.633 Y143.285 E18.60952
G1 X145.77 Y143.17 E18.63848
G1 X143.848 Y142.785 E18.70368
G1 X143.025 Y142.564 E18.73202
G1 X141.17 Y141.935 E18.79717
G1 X140.366 Y141.602 E18.82611
G1 X138.609 Y140.734 E18.89129
G1 X137.859 Y140.301 E18.9201
G1 X136.227 Y139.208 E18.98543
G1 X135.549 Y138.687 E19.01386
G1 X134.072 Y137.392 E19.0792
G1 X133.459 Y136.778 E19.10806
G1 X132.164 Y135.3 E19.17341
G1 X131.636 Y134.611 E19.20229
G1 X130.549 Y132.98 E19.26748
G1 X130.122 Y132.239 E19.29592
G1 X129.255 Y130.481 E19.36112
G1 X128.922 Y129.675 E19.39012
G1 X128.295 Y127.82 E19.45525
G1 X128.074 Y126.996 E19.48362
G1 X127.691 Y125.073 E19.54884
G1 X127.578 Y124.21 E19.57779
G1 X127.451 Y122.246 E19.64325
G1 X127.451 Y121.386 E19.67185
G1 X127.58 Y119.427 E19.73715
G1 X127.694 Y118.566 E19.76604
G1 X128.079 Y116.642 E19.8313
G1 X128.3 Y115.819 E19.85964
G1 X128.928 Y113.966 E19.92471
G1 X129.262 Y113.159 E19.95376
G1 X130.134 Y111.395 E20.01921
G1 X130.567 Y110.647 E20.04796
G1 X131.656 Y109.021 E20.11305
G1 X132.179 Y108.341 E20.14158
G1 X133.473 Y106.866 E20.20684
G1 X134.081 Y106.258 E20.23544
G1 X135.556 Y104.964 E20.3007
G1 X136.249 Y104.433 E20.32974
G1 X136.658 Y104.16 E20.34609
G1 X136.658 Y99.168 E20.51213
G1 X136.698 Y98.443 E20.53628
G1 X136.817 Y97.726 E20.56045
G1 X137.015 Y97.027 E20.58462
G1 X137.288 Y96.354 E20.60877
G1 X137.633 Y95.715 E20.63292
G1 X138.047 Y95.118 E20.65709
M204 S5000
M205 X30 Y30
G0 F3600 X138.032 Y95.833
M204 S500
M205 X20 Y20
G1 F1800 X138.443 Y95.262 E20.68049
G1 X138.874 Y94.784 E20.70189
G1 X138.991 Y94.667 E20.7074
G1 X139.516 Y94.198 E20.73081
G1 X140.091 Y93.792 E20.75422
G1 X140.709 Y93.454 E20.77765
G1 X141.36 Y93.187 E20.80106
G1 X142.038 Y92.997 E20.82447
G1 X142.733 Y92.884 E20.84789
G1 X143.375 Y92.851 E20.86927
G1 X148.141 Y92.851 E21.02779
G1 X148.844 Y92.891 E21.05121
G1 X149.039 Y92.924 E21.05779
G1 X149.288 Y92.884 E21.06618
G1 X149.93 Y92.851 E21.08756
G1 X154.696 Y92.851 E21.24608
G1 X155.399 Y92.891 E21.2695
G1 X156.093 Y93.01 E21.29292
G1 X156.768 Y93.208 E21.31631
G1 X157.417 Y93.48 E21.33972
G1 X158.031 Y93.825 E21.36314
G1 X158.602 Y94.236 E21.38654
G1 X159.08 Y94.667 E21.40795
G1 X159.197 Y94.784 E21.41345
G1 X159.666 Y95.309 E21.43687
G1 X160.072 Y95.884 E21.46028
G1 X160.41 Y96.502 E21.48371
G1 X160.677 Y97.153 E21.50711
G1 X160.867 Y97.831 E21.53053
G1 X160.98 Y98.526 E21.55395
G1 X161.013 Y99.168 E21.57533
G1 X161.013 Y104.376 E21.74855
G1 X161.621 Y104.783 E21.77288
G1 X162.26 Y105.273 E21.79966
G1 X163.735 Y106.567 E21.86493
G1 X164.307 Y107.139 E21.89183
G1 X165.601 Y108.614 E21.95709
